plasma/desktoptheme/Materia/icons/device.svg

<svg xmlns="http://www.w3.org/2000/svg" width="32" height="32" version="1.1">
 <g id="22-22-device-notifier">
  <rect style="opacity:0.001" width="22" height="22" x="32" y="10"/>
  <path style="fill:#dfdfdf" d="M 42.980469 13 A 0.37526783 0.31578771 0 0 0 42.673828 13.158203 L 41.861328 14.341797 L 41.050781 15.525391 A 0.37526783 0.31578771 0 0 0 41.375 16 L 42 16 L 42 22 L 39 22 L 39 20.912109 A 1.5 1.5 0 0 0 40 19.5 A 1.5 1.5 0 0 0 38.5 18 A 1.5 1.5 0 0 0 37 19.5 A 1.5 1.5 0 0 0 38 20.912109 L 38 22.5 A 0.50005 0.50005 0 0 0 38.5 23 L 42 23 L 42 25.271484 A 2 2 0 0 0 41 27 A 2 2 0 0 0 43 29 A 2 2 0 0 0 45 27 A 2 2 0 0 0 44 25.269531 L 44 23 L 47.5 23 A 0.50005 0.50005 0 0 0 48 22.5 L 48 20 L 48.25 20 C 48.6655 20 49 19.6655 49 19.25 L 49 17.75 C 49 17.3345 48.6655 17 48.25 17 L 46.75 17 C 46.3345 17 46 17.3345 46 17.75 L 46 19.25 C 46 19.6655 46.3345 20 46.75 20 L 47 20 L 47 22 L 44 22 L 44 16 L 44.625 16 A 0.37526783 0.31578771 0 0 0 44.949219 15.525391 L 44.138672 14.341797 L 43.326172 13.158203 A 0.37526783 0.31578771 0 0 0 42.980469 13 z"/>
 </g>
 <g id="device-notifier">
  <rect style="opacity:0.001" width="32" height="32" x="0" y="0"/>
  <circle style="opacity:0.2" cx="16" cy="17" r="14"/>
  <circle style="fill:#8e8e8e" cx="16" cy="16" r="14"/>
  <path style="opacity:0.2" d="m 15.980469,9 a 0.37526783,0.31578771 0 0 0 -0.306641,0.1582031 l -0.8125,1.1835939 -0.810547,1.183594 A 0.37526783,0.31578771 0 0 0 14.375,12 H 15 v 6 H 12 V 16.912109 A 1.5,1.5 0 0 0 13,15.5 1.5,1.5 0 0 0 11.5,14 1.5,1.5 0 0 0 10,15.5 1.5,1.5 0 0 0 11,16.912109 V 18.5 A 0.50005,0.50005 0 0 0 11.5,19 H 15 v 2.271484 A 2,2 0 0 0 14,23 a 2,2 0 0 0 2,2 2,2 0 0 0 2,-2 2,2 0 0 0 -1,-1.730469 V 19 h 3.5 A 0.50005,0.50005 0 0 0 21,18.5 V 16 h 0.25 C 21.6655,16 22,15.6655 22,15.25 v -1.5 C 22,13.3345 21.6655,13 21.25,13 h -1.5 C 19.3345,13 19,13.3345 19,13.75 v 1.5 C 19,15.6655 19.3345,16 19.75,16 H 20 v 2 h -3 v -6 h 0.625 a 0.37526783,0.31578771 0 0 0 0.324219,-0.474609 l -0.810547,-1.183594 -0.8125,-1.1835939 A 0.37526783,0.31578771 0 0 0 15.980469,9 Z"/>
  <path style="fill:#ffffff" d="M 15.980469 8 A 0.37526783 0.31578771 0 0 0 15.673828 8.1582031 L 14.861328 9.3417969 L 14.050781 10.525391 A 0.37526783 0.31578771 0 0 0 14.375 11 L 15 11 L 15 17 L 12 17 L 12 15.912109 A 1.5 1.5 0 0 0 13 14.5 A 1.5 1.5 0 0 0 11.5 13 A 1.5 1.5 0 0 0 10 14.5 A 1.5 1.5 0 0 0 11 15.912109 L 11 17.5 A 0.50005 0.50005 0 0 0 11.5 18 L 15 18 L 15 20.271484 A 2 2 0 0 0 14 22 A 2 2 0 0 0 16 24 A 2 2 0 0 0 18 22 A 2 2 0 0 0 17 20.269531 L 17 18 L 20.5 18 A 0.50005 0.50005 0 0 0 21 17.5 L 21 15 L 21.25 15 C 21.6655 15 22 14.6655 22 14.25 L 22 12.75 C 22 12.3345 21.6655 12 21.25 12 L 19.75 12 C 19.3345 12 19 12.3345 19 12.75 L 19 14.25 C 19 14.6655 19.3345 15 19.75 15 L 20 15 L 20 17 L 17 17 L 17 11 L 17.625 11 A 0.37526783 0.31578771 0 0 0 17.949219 10.525391 L 17.138672 9.3417969 L 16.326172 8.1582031 A 0.37526783 0.31578771 0 0 0 15.980469 8 z"/>
  <path style="opacity:0.2;fill:#ffffff" d="M 16 2 A 14 14 0 0 0 2 16 A 14 14 0 0 0 2.0214844 16.585938 A 14 14 0 0 1 16 3 A 14 14 0 0 1 29.978516 16.414062 A 14 14 0 0 0 30 16 A 14 14 0 0 0 16 2 z"/>
 </g>
</svg>

<?xml version="1.0" encoding="UTF-8"?>
<svg width="32" height="32" version="1.1" xmlns="http://www.w3.org/2000/svg">
 <g id="22-22-device-notifier">
  <rect x="32" y="10" width="22" height="22" opacity=".001"/>
  <path d="m42.98 13a0.37527 0.31579 0 0 0-0.30664 0.1582l-0.8125 1.1836-0.81055 1.1836a0.37527 0.31579 0 0 0 0.32422 0.47461h0.625v6h-3v-1.0879a1.5 1.5 0 0 0 1-1.4121 1.5 1.5 0 0 0-1.5-1.5 1.5 1.5 0 0 0-1.5 1.5 1.5 1.5 0 0 0 1 1.4121v1.5879a0.50005 0.50005 0 0 0 0.5 0.5h3.5v2.2715a2 2 0 0 0-1 1.7285 2 2 0 0 0 2 2 2 2 0 0 0 2-2 2 2 0 0 0-1-1.7305v-2.2695h3.5a0.50005 0.50005 0 0 0 0.5-0.5v-2.5h0.25c0.4155 0 0.75-0.3345 0.75-0.75v-1.5c0-0.4155-0.3345-0.75-0.75-0.75h-1.5c-0.4155 0-0.75 0.3345-0.75 0.75v1.5c0 0.4155 0.3345 0.75 0.75 0.75h0.25v2h-3v-6h0.625a0.37527 0.31579 0 0 0 0.32422-0.47461l-0.81055-1.1836-0.8125-1.1836a0.37527 0.31579 0 0 0-0.3457-0.1582z" fill="#dfdfdf"/>
 </g>
 <g id="device-notifier">
  <rect width="32" height="32" opacity=".001"/>
  <circle cx="16" cy="17" r="14" opacity=".2"/>
  <circle cx="16" cy="16" r="14" fill="#8e8e8e"/>
  <path d="m15.98 9a0.37527 0.31579 0 0 0-0.30664 0.1582l-0.8125 1.1836-0.81055 1.1836a0.37527 0.31579 0 0 0 0.32422 0.47461h0.625v6h-3v-1.0879a1.5 1.5 0 0 0 1-1.4121 1.5 1.5 0 0 0-1.5-1.5 1.5 1.5 0 0 0-1.5 1.5 1.5 1.5 0 0 0 1 1.4121v1.5879a0.50005 0.50005 0 0 0 0.5 0.5h3.5v2.2715a2 2 0 0 0-1 1.7285 2 2 0 0 0 2 2 2 2 0 0 0 2-2 2 2 0 0 0-1-1.7305v-2.2695h3.5a0.50005 0.50005 0 0 0 0.5-0.5v-2.5h0.25c0.4155 0 0.75-0.3345 0.75-0.75v-1.5c0-0.4155-0.3345-0.75-0.75-0.75h-1.5c-0.4155 0-0.75 0.3345-0.75 0.75v1.5c0 0.4155 0.3345 0.75 0.75 0.75h0.25v2h-3v-6h0.625a0.37527 0.31579 0 0 0 0.32422-0.47461l-0.81055-1.1836-0.8125-1.1836a0.37527 0.31579 0 0 0-0.3457-0.1582z" opacity=".2"/>
  <path d="m15.98 8a0.37527 0.31579 0 0 0-0.30664 0.1582l-0.8125 1.1836-0.81055 1.1836a0.37527 0.31579 0 0 0 0.32422 0.47461h0.625v6h-3v-1.0879a1.5 1.5 0 0 0 1-1.4121 1.5 1.5 0 0 0-1.5-1.5 1.5 1.5 0 0 0-1.5 1.5 1.5 1.5 0 0 0 1 1.4121v1.5879a0.50005 0.50005 0 0 0 0.5 0.5h3.5v2.2715a2 2 0 0 0-1 1.7285 2 2 0 0 0 2 2 2 2 0 0 0 2-2 2 2 0 0 0-1-1.7305v-2.2695h3.5a0.50005 0.50005 0 0 0 0.5-0.5v-2.5h0.25c0.4155 0 0.75-0.3345 0.75-0.75v-1.5c0-0.4155-0.3345-0.75-0.75-0.75h-1.5c-0.4155 0-0.75 0.3345-0.75 0.75v1.5c0 0.4155 0.3345 0.75 0.75 0.75h0.25v2h-3v-6h0.625a0.37527 0.31579 0 0 0 0.32422-0.47461l-0.81055-1.1836-0.8125-1.1836a0.37527 0.31579 0 0 0-0.3457-0.1582z" fill="#fff"/>
  <path d="m16 2a14 14 0 0 0-14 14 14 14 0 0 0 0.021484 0.58594 14 14 0 0 1 13.979-13.586 14 14 0 0 1 13.979 13.414 14 14 0 0 0 0.021484-0.41406 14 14 0 0 0-14-14z" fill="#fff" opacity=".2"/>
 </g>
</svg>
